src/images/skills/magic.svg

<svg width="62" height="71" viewBox="0 0 62 71" fill="none" xmlns="http://www.w3.org/2000/svg">
<path d="M48.5735 70.0049C39.1322 70.0049 32.0076 67.5644 27.3949 62.7533C22.1426 57.2723 21.6203 50.2795 21.7767 46.5993L21.783 46.4358C21.7918 45.7057 22.3862 45.1128 23.1156 45.1128C23.118 45.1128 23.1211 45.1128 23.1235 45.1128C23.8568 45.1168 24.4489 45.7065 24.4489 46.4398C24.4489 46.493 24.4457 46.585 24.4402 46.712C24.3021 49.9684 24.7529 56.143 29.3203 60.9088C33.0584 64.8096 38.7925 66.9517 46.3846 67.2914C42.4513 58.6088 46.5441 54.2215 50.8592 49.5946C54.729 45.4454 58.7314 41.1541 58.7314 32.8327C58.7314 23.3223 50.7227 19.5033 46.6306 18.1731C47.0973 19.9565 47.3616 22.4136 46.3029 24.6858C45.9925 25.3541 45.1981 25.643 44.533 25.3311C43.8656 25.0208 43.5759 24.2279 43.8878 23.5612C45.2473 20.6406 43.341 16.893 43.3219 16.8541C43.0894 16.4065 43.1298 15.8636 43.4267 15.4557C43.7251 15.0478 44.2235 14.8422 44.7243 14.9247C44.891 14.9525 61.3981 17.8914 61.3981 32.8335C61.3981 42.2049 56.6362 47.3112 52.81 51.4136C48.3402 56.2065 45.1108 59.6692 49.741 68.0271C49.9695 68.439 49.9624 68.9422 49.7227 69.3493C49.4814 69.7549 49.0449 70.0049 48.5735 70.0049Z" fill="#1A1A1A" fill-opacity="0.72"/>
<path d="M32.9337 46.967C27.9694 46.967 25.0734 44.5662 23.8329 43.2083C21.64 44.1202 16.1829 46.3059 13.3686 46.6924C9.38845 47.2448 4.52575 40.3321 3.59004 38.9408C3.21782 38.3868 3.31226 37.6448 3.81147 37.2011L13.7067 28.4059C15.7115 24.7662 19.471 21.4924 21.0654 20.2003L15.5964 1.71623C15.4281 1.14639 15.6575 0.533689 16.1583 0.213847C16.6583 -0.1052 17.3115 -0.0552 17.7567 0.338451L30.9829 12.0337C31.8384 10.3972 33.2416 9.09321 33.463 8.89321C33.8591 8.53448 34.4313 8.44718 34.9138 8.67099C44.0757 12.8877 42.1273 21.2996 42.1067 21.3837C41.9313 22.0988 41.2107 22.5369 40.4948 22.3607C39.7813 22.1853 39.3448 21.467 39.517 20.7535C39.5781 20.4908 40.8075 14.8511 34.6226 11.5035C33.8115 12.3964 32.9837 13.6019 32.9837 14.4027C32.9837 14.9265 32.6765 15.4027 32.1988 15.6178C31.7218 15.8345 31.1607 15.7488 30.7686 15.4019L19.4686 5.41226L23.8773 20.3115C24.0353 20.8464 23.8432 21.4234 23.3972 21.7575C23.344 21.7964 18.1424 25.7178 15.9448 29.8702C15.8702 30.0107 15.771 30.1369 15.6511 30.2424L6.47258 38.4011C8.50036 41.144 11.5281 44.2599 13.0059 44.0511C16.1448 43.621 23.6369 40.3988 23.7115 40.367C24.3154 40.1083 25.013 40.3226 25.3646 40.8757C25.4511 41.0075 27.6757 44.3027 32.9337 44.3027C37.14 44.3027 40.2495 41.2114 40.4869 40.4821C40.6138 39.7567 41.2995 39.2884 42.0242 39.4154C42.7488 39.5416 43.2305 40.2503 43.1043 40.9757C42.7392 43.0797 38.2988 46.967 32.9337 46.967Z" fill="#1A1A1A" fill-opacity="0.72"/>
<path d="M27.2714 29.9199C26.8198 29.9199 26.3793 29.6905 26.1293 29.2762C25.7492 28.6453 25.9515 27.8262 26.5817 27.4461C30.9563 24.8056 36.1055 27.1453 36.3222 27.2469C36.9904 27.5572 37.2793 28.35 36.9698 29.0167C36.6603 29.6842 35.8658 29.9754 35.2023 29.6651C35.1301 29.6334 31.0936 27.8366 27.9603 29.7286C27.7436 29.8588 27.5063 29.9199 27.2714 29.9199Z" fill="#1A1A1A" fill-opacity="0.72"/>
<path d="M51.3633 60.1548C51.3633 59.9714 51.4776 59.8159 51.6379 59.7524C51.6379 59.7516 51.6379 59.7516 51.6379 59.7508C53.622 59.0603 55.153 57.5159 55.8704 55.5476C55.872 55.5476 55.8728 55.5476 55.8744 55.5476C55.9212 55.3619 56.0879 55.2246 56.2879 55.2246C56.4728 55.2246 56.6292 55.3429 56.6887 55.5071C56.6895 55.5071 56.6903 55.5071 56.6919 55.5079C57.4038 57.4556 58.9942 59.0532 60.949 59.7492C60.949 59.75 60.949 59.75 60.949 59.75C61.1093 59.8119 61.2236 59.9667 61.2236 60.1484C61.2236 60.3317 61.1077 60.4873 60.9458 60.5476C58.9704 61.2444 57.4045 62.8024 56.695 64.7706C56.6942 64.7698 56.6934 64.7698 56.6926 64.7698C56.6387 64.9444 56.4776 65.073 56.2847 65.073C56.0998 65.073 55.9442 64.9556 55.8839 64.7929C55.8831 64.7929 55.8831 64.7929 55.8823 64.7929C55.1855 62.8127 53.6276 61.2516 51.6355 60.5564L51.6347 60.5556C51.4752 60.4913 51.3633 60.3365 51.3633 60.1548Z" fill="#1A1A1A" fill-opacity="0.72"/>
<path d="M4.42969 14.9375C4.42969 14.7082 4.57254 14.5137 4.77334 14.4336C4.77334 14.4328 4.77334 14.432 4.77334 14.4312C7.25667 13.5669 9.17254 11.6336 10.071 9.17088C10.0725 9.17088 10.0741 9.17088 10.0757 9.17088C10.1344 8.93913 10.3432 8.76611 10.5932 8.76611C10.8249 8.76611 11.0202 8.91373 11.0948 9.12008C11.0964 9.12088 11.0964 9.12008 11.0979 9.12088C11.9884 11.559 13.9797 13.5582 16.4257 14.4296C16.4257 14.4304 16.4257 14.4304 16.4257 14.4312C16.6265 14.5082 16.7702 14.7018 16.7702 14.9304C16.7702 15.1598 16.6249 15.3542 16.4225 15.4304C13.9503 16.3026 11.99 18.2526 11.1027 20.7169C11.1019 20.7161 11.1003 20.7161 11.0995 20.7153C11.0313 20.9344 10.8297 21.0947 10.5884 21.0947C10.3575 21.0947 10.1622 20.9479 10.086 20.7439C10.0852 20.7439 10.0852 20.7439 10.0844 20.7439C9.21223 18.2653 7.26223 16.3113 4.76858 15.4415L4.76778 15.4407C4.57016 15.3598 4.42969 15.1653 4.42969 14.9375Z" fill="#1A1A1A" fill-opacity="0.72"/>
<path d="M0.976562 23.1301C0.976562 22.9872 1.06545 22.865 1.19085 22.8158C1.19085 22.8158 1.19085 22.815 1.19085 22.8142C2.74005 22.2745 3.93609 21.069 4.4964 19.5317C4.4972 19.5317 4.49799 19.5317 4.49958 19.5317C4.53608 19.3872 4.66624 19.2793 4.82259 19.2793C4.96704 19.2793 5.08926 19.3714 5.13608 19.4999C5.13688 19.4999 5.13767 19.4999 5.13847 19.5007C5.69402 21.0222 6.93688 22.2698 8.46307 22.8134V22.8142C8.58846 22.8626 8.67815 22.9833 8.67815 23.1253C8.67815 23.2682 8.58767 23.3896 8.46069 23.4372C6.91783 23.9817 5.69481 25.1983 5.14085 26.7356C5.14005 26.7356 5.13926 26.7348 5.13926 26.7348C5.0972 26.8714 4.97101 26.9714 4.82021 26.9714C4.67577 26.9714 4.55434 26.8801 4.50672 26.7523H4.50593C3.96148 25.2055 2.74482 23.9864 1.18926 23.4436L1.18847 23.4428C1.06466 23.3936 0.976562 23.2722 0.976562 23.1301Z" fill="#1A1A1A" fill-opacity="0.72"/>
</svg>

<?xml version="1.0" encoding="UTF-8"?>
<svg viewBox="0 0 62 71" xmlns="http://www.w3.org/2000/svg">
<path d="m48.574 70.005c-9.4413 0-16.566-2.4405-21.179-7.2516-5.2524-5.4809-5.7746-12.474-5.6183-16.154l0.0064-0.1635c0.0087-0.7302 0.6032-1.3231 1.3325-1.3231h8e-3c0.7333 4e-3 1.3254 0.5937 1.3254 1.327 0 0.0532-0.0032 0.1453-0.0088 0.2723-0.1381 3.2563 0.3127 9.4309 4.8802 14.197 3.7381 3.9008 9.4722 6.0428 17.064 6.3825-3.9334-8.6825 0.1595-13.07 4.4746-17.697 3.8698-4.1492 7.8722-8.4405 7.8722-16.762 0-9.5103-8.0087-13.329-12.101-14.66 0.4667 1.7833 0.731 4.2405-0.3278 6.5127-0.3103 0.6682-1.1047 0.9571-1.7698 0.6452-0.6675-0.3103-0.9572-1.1032-0.6453-1.7698 1.3596-2.9207-0.5468-6.6683-0.5658-6.7072-0.2326-0.4476-0.1921-0.9904 0.1047-1.3984 0.2985-0.4079 0.7969-0.6135 1.2977-0.5309 0.1666 0.0277 16.674 2.9666 16.674 17.909 0 9.3714-4.7619 14.478-8.5881 18.58-4.4699 4.7929-7.6992 8.2556-3.0691 16.614 0.2286 0.4119 0.2214 0.9151-0.0182 1.3222-0.2413 0.4056-0.6778 0.6556-1.1492 0.6556z" fill="#1A1A1A" fill-opacity=".72"/>
<path d="m32.935 46.967c-4.9643 0-7.8604-2.4008-9.1008-3.7588-2.1929 0.9119-7.65 3.0976-10.464 3.4842-3.9802 0.5523-8.8429-6.3604-9.7786-7.7516-0.37222-0.554-0.27778-1.2961 0.22143-1.7397l9.8952-8.7952c2.0047-3.6397 5.7643-6.9135 7.3587-8.2056l-5.469-18.484c-0.1683-0.56984 0.0611-1.1825 0.5619-1.5024 0.5-0.31905 1.1531-0.26905 1.5984 0.1246l13.226 11.695c0.8555-1.6365 2.2587-2.9404 2.4801-3.1404 0.3961-0.35873 0.9683-0.44603 1.4508-0.22222 9.1619 4.2167 7.2135 12.629 7.1929 12.713-0.1754 0.7151-0.8961 1.1532-1.6119 0.977-0.7135-0.1754-1.15-0.8936-0.9778-1.6071 0.0611-0.2627 1.2905-5.9024-4.8945-9.25-0.8111 0.8928-1.6388 2.0984-1.6388 2.8992 0 0.5238-0.3072 1-0.785 1.2151-0.4769 0.2166-1.0381 0.1309-1.4301-0.2159l-11.3-9.9897 4.4087 14.899c0.1579 0.5349-0.0341 1.1119-0.4801 1.446-0.0532 0.0389-5.2548 3.9604-7.4524 8.1127-0.0746 0.1405-0.1738 0.2667-0.2937 0.3723l-9.1785 8.1587c2.0278 2.7428 5.0555 5.8587 6.5333 5.65 3.1389-0.4302 10.631-3.6524 10.706-3.6841 0.604-0.2588 1.3016-0.0445 1.6532 0.5087 0.0865 0.1317 2.3111 3.427 7.5691 3.427 4.2063 0 7.3158-3.0913 7.5531-3.8207 0.127-0.7254 0.8127-1.1936 1.5373-1.0666 0.7246 0.1262 1.2064 0.8349 1.0802 1.5603-0.3651 2.1039-4.8056 5.9913-10.171 5.9913z" fill="#1A1A1A" fill-opacity=".72"/>
<path d="m27.273 29.92c-0.4516 0-0.8921-0.2293-1.1421-0.6436-0.3801-0.631-0.1778-1.45 0.4524-1.8302 4.3746-2.6405 9.5238-0.3008 9.7405-0.1992 0.6682 0.3103 0.9571 1.1032 0.6476 1.7698-0.3095 0.6675-1.104 0.9588-1.7675 0.6485-0.0722-0.0318-4.1087-1.8286-7.242 0.0635-0.2167 0.1301-0.454 0.1912-0.6889 0.1912z" fill="#1A1A1A" fill-opacity=".72"/>
<path d="m51.364 60.155c0-0.1833 0.1143-0.3389 0.2746-0.4024v-0.0016c1.9841-0.6905 3.515-2.2349 4.2325-4.2032h4e-3c0.0468-0.1857 0.2135-0.323 0.4135-0.323 0.1849 0 0.3412 0.1183 0.4008 0.2826 8e-4 0 0.0016 0 0.0031 8e-4 0.7119 1.9476 2.3024 3.5452 4.2572 4.2412v8e-4c0.1603 0.0619 0.2746 0.2167 0.2746 0.3984 0 0.1834-0.1159 0.3389-0.2778 0.3992-1.9754 0.6969-3.5413 2.2548-4.2508 4.2231-8e-4 -8e-4 -0.0016-8e-4 -0.0024-8e-4 -0.0539 0.1746-0.215 0.3031-0.4079 0.3031-0.1849 0-0.3405-0.1174-0.4008-0.2801h-0.0016c-0.6968-1.9802-2.2547-3.5413-4.2468-4.2365l-8e-4 -8e-4c-0.1595-0.0643-0.2714-0.2191-0.2714-0.4008z" fill="#1A1A1A" fill-opacity=".72"/>
<path d="m4.4329 14.938c0-0.2294 0.14286-0.4238 0.34365-0.504v-0.0024c2.4833-0.8643 4.3992-2.7976 5.2976-5.2603h0.0048c0.0587-0.23175 0.2675-0.40477 0.5175-0.40477 0.2317 0 0.4269 0.14762 0.5015 0.35397 0.0016 8e-4 0.0016 0 0.0032 8e-4 0.8905 2.4381 2.8818 4.4373 5.3278 5.3087v0.0016c0.2008 0.077 0.3444 0.2707 0.3444 0.4992 0 0.2294-0.1452 0.4238-0.3476 0.5-2.4722 0.8722-4.4325 2.8222-5.3198 5.2865-8e-4 -8e-4 -0.0024-8e-4 -0.0032-0.0016-0.0683 0.2191-0.2698 0.3794-0.5111 0.3794-0.231 0-0.4262-0.1468-0.5024-0.3508h-0.0016c-0.8722-2.4786-2.8222-4.4325-5.3158-5.3024l-7.9e-4 -8e-4c-0.19762-0.0809-0.3381-0.2754-0.3381-0.5031z" fill="#1A1A1A" fill-opacity=".72"/>
<path d="m0.9779 23.13c0-0.1428 0.088885-0.2651 0.21428-0.3143v-0.0015c1.5492-0.5397 2.7452-1.7453 3.3056-3.2826h0.00317c0.03651-0.1444 0.16667-0.2524 0.32302-0.2524 0.14444 0 0.26666 0.0921 0.31349 0.2207 7.9e-4 0 0.00158 0 0.00238 8e-4 0.55555 1.5214 1.7984 2.769 3.3246 3.3127v8e-4c0.1254 0.0484 0.21508 0.169 0.21508 0.3111 0 0.1428-0.09048 0.2643-0.21746 0.3119-1.5429 0.5444-2.7659 1.7611-3.3198 3.2984-7.9e-4 0-0.00159-8e-4 -0.00159-8e-4 -0.04206 0.1365-0.16825 0.2365-0.31905 0.2365-0.14444 0-0.26587-0.0913-0.31349-0.2191h-7.9e-4c-0.54445-1.5468-1.7611-2.7658-3.3167-3.3087l-7.9e-4 -8e-4c-0.12381-0.0492-0.2119-0.1706-0.2119-0.3127z" fill="#1A1A1A" fill-opacity=".72"/>
</svg>
